X:170
K:1
Q:1/8
L:16/4B2
L:1/8
1G3
anct>
(B/2c/c/2B/d/ d2| cA/2 | dd dB | 


*****************************


6100 0 1.2997516 

<starigwcaz G2 A2z2 Free | dec dce|z2c2c2 e2g2 | [A3ee d2c2 | A2|A2 Fd/2IG/2CBc2) c2 | Pe g2(2 AB | f4e2c


*****************************


6200 0 1.6153269 

<starf/or:20E21266
V:Tranmo Glle Rassto~nre
gd ed | c/2G/2B | A4 |
B2 A2B | B4|
""D"A"d/e/2d/e/2c/d/|c2"c


*****************************


6300 0 2.1917357 

<starto:am:Bhen cE0LLON - 2005-05-8
Z:Pourone toute Retibveonlion Micheelleis BE7- lqu lo-ga lou llound B


*****************************


6400 0 1.3306543 

<starstanpaituouville@fupe@f.fr
M:6/8
L:1/8
K:C
Ve (g'e bab||ed d>B|"""A(B/c/c/c/ ID | EF/c/2|\
DG}d e/2/


*****************************


6500 0 2.4245474 

<starmatisp:au-chlestinatobghore=Swi.dha Bi lalra-rkhe
B2c/B> | c3 fB | \
BB AFA |EA G3 ||]
<end>
O:SDht2


*****************************


6600 0 1.8552436 

<staridhix
Z:Dmaile Pacher trobofvineer
M:4/4
L:1/8
K:6
x d7|"C"B3|A)-|G3-|GB: Eg|E/2"DE/A/\"G"Gd/c/|"GF"


*****************************


6700 0 2.44125 

<stare.
M:1/8
L:1/8
M:29
N:Botiorre@ganisar le "Tovenha -1a2?nerteRm
M:1/4
L:1/8
K:B
G4|\
g4|ougnd2fe|[D"


*****************************


6800 0 2.010341 

<starnou Btlou Bhina Jun 9 7u Htreiga 4 ad ed|fu bs uavie lon devensw
N:6 ce beacn(Cravbi.y1g
Z:Fhendes=e


*****************************


6900 0 2.1551018 

<starrinlt@pt/ouoguHiollle@rilolteA:10u Pra Stla mailgi) Bured.w RtOs qrcher  1/4
M:1/4
L:1/8
K:1/D8|
zAB


*****************************


7000 0 2.1101615 

<startiutit:ous Pockorbk
Z:oSt Bettesfs0zhk
R:RieldradB>I)
ZIdsanturiez
R:Sattire Cuttondnwtavoxy
R:IstaN


*****************************


7100 0 2.395368 

<startigave@(Ck
L:2/8
L:1/8
V:D
G|[D"G3]Tr"| e2 ge2e.f)|^c8]e2 c2]1e2 c4|Ec FGAA K"Dm"[GG"cB|A2 E/F/:GD |


*****************************


7200 0 1.7364032 

<start
M:16
L:1/4
QQ:1/99
K:G
xd2 | A2F2|] eredtf.d2BG2:c2|c2d-ded|=c6 e6|d>e C>_d>c|AG BA|1GA Ad eg|e3 e


*****************************


7300 0 1.7888995 

<star tas RaC-(V
M:3/4
Q:1/8
K:C
G/c/ on-g/p? War D Me?tr
"Ce
R:Posrand Cid 2yathun <en
M:2iristave Jure 


*****************************


7400 0 1.6103206 

<startiile@Miorgi.sor Hilon du tioure vifif origigro?e abfraf.c>
M:23
L:1/4
T:PNowke
C:-Es
R:Irbe Arinans


*****************************


7500 0 1.8575577 

<staroigllie@fe.fr
M:2/4
T:fad-cafrard>
M:C|4
E:Carienbobistino def|ded cBBB|B2G2|c22B2B2||G2 G2|:|
P:C"G


*****************************


7600 0 2.2803404 

<start:at-ou migillo chilte@frain eram.nix
Z:Tranes
C:3/8
P:! mour anle ban asmple
R:Erande crane I'o?le 


*****************************


7700 0 0.3950702 

<star
lontgato:galogramiel fhef.fr uand
K:C/47
K:c/Horiseresgpnee
gz=afff BcBsgf eGcdec B2FG2{AB2c2||
<en


*****************************


7800 0 1.7797657 

<starat]
Z:1/4=9 G0G,0G
E:Dm"2d2 B2 d2d2d2 e2 d2 B2 | "C"b"Pwd
f2c2 d2 :
6 AGAGA G2G2 G2 | 
DCFEGA \ (DFE


*****************************


7900 0 1.4151695 

<star:orige.loilt>ots oilr Motpes Caonplon par ch lon nai Trtighe.lapbiorg.er
M:Transost ej Smantapsot
A:


*****************************


8000 0 1.2656078 

<starte
Z:Tranarieloule@freedo@_t."C7inche@frut/out  Ocheleyd.(C62A7
m:Phion der|2fgffofg.fefgf.ffe(f/e/2


*****************************


8100 0 2.518253 

<start>:>3 307
L:3/8o
K:C
G2|G4F,2G2|d2G/2B/2G/2F |cBced4|d3B2d2B2||e2d2c2d2d2d2g4:|\
V:D
B4-|G4|
A3 | g2


*****************************


8200 0 0.09532648 

<starviet: Bhratinabhe caf.leqpa.
<cetonsest>
<sstart>
